;FLAVOR:Marlin
;TIME:3824
;Filament used: 3.74574m
;Layer height: 0.28
;MINX:83.26
;MINY:81.049
;MINZ:0.28
;MAXX:151.917
;MAXY:142.851
;MAXZ:17.56
;Generated with Cura_SteamEngine 5.3.1
M140 S55
M105
M190 S55
M104 S210
M105
M109 S210
M82 ;absolute extrusion mode
; Ender 3 Custom Start G-code
G92 E0 ; Reset Extruder
G28 ; Home all axes
G1 Z2.0 F3000 ; Move Z Axis up little to prevent scratching of Heat Bed
G1 X0.1 Y20 Z0.3 F5000.0 ; Move to start position
G1 X0.1 Y200.0 Z0.3 F1500.0 E15 ; Draw the first line
G1 X0.4 Y200.0 Z0.3 F5000.0 ; Move to side a little
G1 X0.4 Y20 Z0.3 F1500.0 E30 ; Draw the second line
G92 E0 ; Reset Extruder
G1 Z2.0 F3000 ; Move Z Axis up little to prevent scratching of Heat Bed
G1 X5 Y20 Z0.3 F5000.0 ; Move over to prevent blob squish
G92 E0
M413 S0; Disable power-loss recovery
G92 E0
G1 F3000 E-7
;LAYER_COUNT:63
;LAYER:0
M107
G1 F300 Z0.48
G0 F6000 X87.022 Y84.958 Z0.48
;TYPE:SKIRT
G1 F300 Z0.28
G1 F3000 E0
G1 F1200 X87.683 Y84.341 E0.04421
G1 X88.396 Y83.786 E0.08839
G1 X89.155 Y83.296 E0.13256
G1 X89.954 Y82.875 E0.17671
G1 X90.788 Y82.526 E0.22092
G1 X91.649 Y82.252 E0.26509
G1 X92.531 Y82.056 E0.30927
G1 X93.426 Y81.938 E0.3534
G1 X94.118 Y81.902 E0.38728
G1 X94.899 Y81.889 E0.42547
G1 X140.13 Y81.889 E2.63693
G1 X141.006 Y81.9 E2.67976
G1 X141.908 Y81.952 E2.72393
G1 X142.801 Y82.084 E2.76807
G1 X143.68 Y82.294 E2.81225
G1 X144.537 Y82.581 E2.85644
G1 X145.365 Y82.943 E2.90063
G1 X146.158 Y83.377 E2.94482
G1 X146.909 Y83.879 E2.98899
G1 X147.613 Y84.445 E3.03315
G1 X148.264 Y85.071 E3.07731
G1 X148.857 Y85.753 E3.1215
G1 X149.388 Y86.484 E3.16567
G1 X149.852 Y87.26 E3.20988
G1 X150.245 Y88.073 E3.25403
G1 X150.565 Y88.918 E3.29821
G1 X150.81 Y89.788 E3.3424
G1 X150.976 Y90.676 E3.38657
G1 X151.063 Y91.575 E3.43073
G1 X151.077 Y92.172 E3.45992
G1 X151.075 Y92.494 E3.47567
G1 X151.029 Y93.397 E3.51987
G1 X150.904 Y94.292 E3.56406
G1 X150.709 Y95.141 E3.60665
G1 X150.543 Y95.744 E3.63723
G1 X150.123 Y97.188 E3.71075
G1 X149.482 Y99.644 E3.83485
G1 X148.901 Y102.164 E3.96129
G1 X148.41 Y104.605 E4.08303
G1 X147.978 Y107.112 E4.20741
G1 X147.619 Y109.624 E4.33148
G1 X147.332 Y112.13 E4.4548
G1 X147.071 Y115.274 E4.60905
G1 X146.963 Y116.201 E4.65468
G1 X146.724 Y117.669 E4.7274
G1 X146.575 Y118.49 E4.76819
G1 X146.394 Y119.294 E4.80849
G1 X146.149 Y120.205 E4.85461
G1 X145.725 Y121.645 E4.928
G1 X145.437 Y122.483 E4.97133
G1 X145.097 Y123.347 E5.01672
G1 X144.546 Y124.656 E5.08616
G1 X144.182 Y125.428 E5.12789
G1 X143.623 Y126.492 E5.18666
G1 X143.253 Y127.164 E5.22416
G1 X142.91 Y127.757 E5.25766
G1 X142.535 Y128.353 E5.29209
G1 X141.888 Y129.306 E5.3484
G1 X141.053 Y130.47 E5.41844
G1 X140.433 Y131.248 E5.46708
G1 X139.453 Y132.36 E5.53955
G1 X138.83 Y133.04 E5.58464
G1 X138.228 Y133.642 E5.62627
G1 X137.72 Y134.109 E5.66001
G1 X136.957 Y134.79 E5.71001
G1 X136.386 Y135.285 E5.74696
G1 X135.757 Y135.788 E5.78633
G1 X135.247 Y136.164 E5.81731
G1 X134.291 Y136.843 E5.87464
G1 X133.706 Y137.246 E5.90937
G1 X132.927 Y137.733 E5.95429
G1 X131.96 Y138.278 E6.00856
G1 X130.604 Y138.997 E6.0836
G1 X129.773 Y139.388 E6.12851
G1 X128.433 Y139.946 E6.19948
G1 X127.764 Y140.212 E6.23468
G1 X126.882 Y140.516 E6.28029
G1 X125.384 Y140.955 E6.35661
G1 X124.472 Y141.199 E6.40277
G1 X123.771 Y141.36 E6.43793
G1 X123.12 Y141.483 E6.47033
G1 X122.05 Y141.664 E6.52338
G1 X121.354 Y141.773 E6.55783
G1 X120.509 Y141.87 E6.59941
G1 X119.83 Y141.919 E6.6327
G1 X118.864 Y141.975 E6.68001
G1 X117.992 Y142.011 E6.72268
G1 X117.073 Y142.008 E6.76761
G1 X115.672 Y141.939 E6.83619
G1 X114.676 Y141.87 E6.885
G1 X113.835 Y141.775 E6.92638
G1 X112.965 Y141.638 E6.96945
G1 X111.554 Y141.389 E7.0395
G1 X110.671 Y141.192 E7.08373
G1 X109.773 Y140.95 E7.1292
G1 X108.33 Y140.526 E7.20274
G1 X107.493 Y140.239 E7.246
G1 X106.638 Y139.903 E7.29091
G1 X105.326 Y139.352 E7.36049
G1 X104.55 Y138.985 E7.40246
G1 X103.511 Y138.439 E7.45984
G1 X102.333 Y137.778 E7.52589
G1 X101.621 Y137.336 E7.56686
G1 X100.444 Y136.532 E7.63655
G1 X99.495 Y135.846 E7.6938
G1 X98.728 Y135.233 E7.74181
G1 X97.447 Y134.102 E7.82536
G1 X96.933 Y133.628 E7.85954
G1 X96.345 Y133.038 E7.90027
G1 X95.751 Y132.392 E7.94318
G1 X95.156 Y131.724 E7.98691
G1 X94.69 Y131.186 E8.02171
G1 X94.182 Y130.551 E8.06147
G1 X93.801 Y130.033 E8.09291
G1 X93.225 Y129.223 E8.14151
G1 X92.729 Y128.504 E8.18421
G1 X92.245 Y127.729 E8.22889
G1 X91.558 Y126.502 E8.29764
G1 X90.978 Y125.401 E8.35849
G1 X90.59 Y124.577 E8.40302
G1 X90.113 Y123.435 E8.46353
G1 X89.771 Y122.579 E8.50859
G1 X89.468 Y121.707 E8.55373
G1 X89.097 Y120.456 E8.61753
G1 X88.776 Y119.272 E8.67751
G1 X88.583 Y118.402 E8.72108
G1 X88.349 Y117.076 E8.78691
G1 X88.202 Y116.145 E8.83299
G1 X88.114 Y115.406 E8.86938
G1 X87.857 Y112.291 E9.0222
G1 X87.573 Y109.782 E9.14565
G1 X87.214 Y107.244 E9.27097
G1 X86.789 Y104.758 E9.39428
G1 X86.292 Y102.269 E9.51838
G1 X85.731 Y99.825 E9.64098
G1 X84.825 Y96.398 E9.81429
G1 X84.498 Y95.256 E9.87237
G1 X84.289 Y94.377 E9.91654
G1 X84.157 Y93.483 E9.96073
G1 X84.107 Y92.66 E10.00104
G1 X84.1 Y92.32 E10.01767
G1 X84.122 Y91.417 E10.06183
G1 X84.223 Y90.519 E10.10601
G1 X84.403 Y89.634 E10.15017
G1 X84.661 Y88.768 E10.19435
G1 X84.994 Y87.928 E10.23853
G1 X85.4 Y87.121 E10.2827
G1 X85.876 Y86.353 E10.32687
G1 X86.418 Y85.63 E10.37105
G1 X86.478 Y85.563 E10.37545
G0 F1080 X87.022 Y84.958
G0 F6000 X86.735 Y84.651
G1 F1200 X87.396 Y84.034 E10.41966
G1 X88.168 Y83.433 E10.46749
G1 X88.959 Y82.924 E10.51348
G1 X89.758 Y82.503 E10.55764
G1 X90.661 Y82.126 E10.60548
G1 X91.558 Y81.842 E10.65148
G1 X92.44 Y81.646 E10.69566
G1 X93.404 Y81.519 E10.7432
G1 X94.111 Y81.482 E10.77781
G1 X94.892 Y81.469 E10.816
G1 X140.135 Y81.469 E13.02804
G1 X141.03 Y81.481 E13.0718
G1 X141.932 Y81.533 E13.11598
G1 X142.899 Y81.675 E13.16376
G1 X143.778 Y81.885 E13.20795
G1 X144.705 Y82.196 E13.25576
G1 X145.533 Y82.558 E13.29994
G1 X146.36 Y83.009 E13.34599
G1 X147.172 Y83.552 E13.39375
G1 X147.904 Y84.142 E13.43972
G1 X148.581 Y84.795 E13.48571
G1 X149.197 Y85.506 E13.5317
G1 X149.728 Y86.237 E13.57588
G1 X150.23 Y87.077 E13.62372
G1 X150.638 Y87.924 E13.66969
G1 X150.958 Y88.769 E13.71387
G1 X151.223 Y89.711 E13.76171
G1 X151.389 Y90.599 E13.80588
G1 X151.483 Y91.565 E13.85333
G1 X151.497 Y92.175 E13.88316
G1 X151.494 Y92.515 E13.89979
G1 X151.445 Y93.455 E13.94581
G1 X151.32 Y94.35 E13.98999
G1 X151.114 Y95.252 E14.03523
G1 X150.946 Y95.861 E14.06612
G1 X150.526 Y97.305 E14.13964
G1 X149.888 Y99.75 E14.26319
G1 X149.313 Y102.247 E14.38847
G1 X148.822 Y104.688 E14.5102
G1 X148.392 Y107.183 E14.63399
G1 X148.035 Y109.683 E14.75746
G1 X147.751 Y112.165 E14.8796
G1 X147.488 Y115.323 E15.03454
G1 X147.378 Y116.268 E15.08106
G1 X147.137 Y117.744 E15.15418
G1 X146.985 Y118.582 E15.19582
G1 X146.8 Y119.403 E15.23696
G1 X146.552 Y120.324 E15.2836
G1 X146.122 Y121.782 E15.35792
G1 X145.828 Y122.637 E15.40212
G1 X145.484 Y123.51 E15.448
G1 X144.926 Y124.835 E15.51829
G1 X144.554 Y125.623 E15.5609
G1 X143.991 Y126.695 E15.6201
G1 X143.617 Y127.374 E15.658
G1 X143.265 Y127.981 E15.69231
G1 X142.882 Y128.589 E15.72744
G1 X142.229 Y129.551 E15.78429
G1 X141.381 Y130.732 E15.85537
G1 X140.748 Y131.526 E15.90502
G1 X139.763 Y132.644 E15.97787
G1 X139.14 Y133.324 E16.02296
G1 X138.512 Y133.951 E16.06635
G1 X138 Y134.422 E16.10036
G1 X137.232 Y135.107 E16.15068
G1 X136.648 Y135.613 E16.18846
G1 X136.006 Y136.126 E16.22864
G1 X135.49 Y136.506 E16.25997
G1 X134.529 Y137.189 E16.31761
G1 X133.929 Y137.602 E16.35323
G1 X133.133 Y138.099 E16.39911
G1 X132.157 Y138.649 E16.45388
G1 X130.783 Y139.377 E16.52991
G1 X129.934 Y139.776 E16.57577
G1 X128.588 Y140.336 E16.64705
G1 X127.901 Y140.609 E16.68319
G1 X127 Y140.919 E16.72978
G1 X125.493 Y141.361 E16.80656
G1 X124.566 Y141.608 E16.85347
G1 X123.849 Y141.773 E16.88944
G1 X123.19 Y141.897 E16.92223
G1 X122.115 Y142.079 E16.97553
G1 X121.402 Y142.19 E17.01081
G1 X120.539 Y142.289 E17.05328
G1 X119.854 Y142.338 E17.08686
G1 X118.881 Y142.395 E17.13452
G1 X118.009 Y142.431 E17.17719
G1 X117.052 Y142.427 E17.22398
G1 X115.643 Y142.358 E17.29295
G1 X114.629 Y142.287 E17.34265
G1 X113.77 Y142.19 E17.38491
G1 X112.892 Y142.052 E17.42837
G1 X111.463 Y141.799 E17.49932
G1 X110.562 Y141.598 E17.54445
G1 X109.655 Y141.353 E17.59039
G1 X108.194 Y140.923 E17.66485
G1 X107.339 Y140.63 E17.70904
G1 X106.475 Y140.29 E17.75444
G1 X105.146 Y139.732 E17.82491
G1 X104.355 Y139.357 E17.86771
G1 X103.305 Y138.805 E17.92571
G1 X102.111 Y138.135 E17.99265
G1 X101.384 Y137.683 E18.0345
G1 X100.198 Y136.872 E18.10475
G1 X99.233 Y136.174 E18.16298
G1 X98.45 Y135.548 E18.21199
G1 X97.162 Y134.411 E18.29599
G1 X96.648 Y133.937 E18.33018
G1 X96.036 Y133.322 E18.3726
G1 X95.437 Y132.671 E18.41585
G1 X94.839 Y131.999 E18.45983
G1 X94.362 Y131.448 E18.49547
G1 X93.844 Y130.8 E18.53603
G1 X93.459 Y130.276 E18.56782
G1 X92.879 Y129.461 E18.61673
G1 X92.373 Y128.726 E18.66035
G1 X91.879 Y127.934 E18.70599
G1 X91.186 Y126.698 E18.77527
G1 X90.598 Y125.58 E18.83703
G1 X90.202 Y124.739 E18.88248
G1 X89.723 Y123.591 E18.9433
G1 X89.374 Y122.717 E18.98931
G1 X89.065 Y121.826 E19.03542
G1 X88.692 Y120.566 E19.09967
G1 X88.366 Y119.363 E19.16061
G1 X88.169 Y118.475 E19.20508
G1 X87.934 Y117.142 E19.27126
G1 X87.785 Y116.195 E19.31813
G1 X87.695 Y115.441 E19.35526
G1 X87.439 Y112.326 E19.50807
G1 X87.157 Y109.841 E19.63035
G1 X86.798 Y107.303 E19.75567
G1 X86.375 Y104.829 E19.87839
G1 X85.88 Y102.351 E20.00194
G1 X85.322 Y99.919 E20.12393
G1 X84.421 Y96.514 E20.29614
G1 X84.089 Y95.353 E20.35518
G1 X83.88 Y94.474 E20.39935
G1 X83.738 Y93.508 E20.44709
G1 X83.687 Y92.669 E20.48819
G1 X83.68 Y92.31 E20.50574
G1 X83.702 Y91.407 E20.54991
G1 X83.811 Y90.435 E20.59773
G1 X84 Y89.514 E20.6437
G1 X84.258 Y88.648 E20.68788
G1 X84.619 Y87.739 E20.7357
G1 X85.043 Y86.9 E20.78166
G1 X85.54 Y86.101 E20.82766
G1 X86.082 Y85.378 E20.87184
G1 X86.191 Y85.256 E20.87984
G0 F1080 X86.735 Y84.651
G0 F6000 X86.448 Y84.344
G1 F1200 X87.109 Y83.727 E20.92405
G1 X87.941 Y83.08 E20.97558
G1 X88.763 Y82.552 E21.02335
G1 X89.596 Y82.115 E21.06934
G1 X90.499 Y81.738 E21.11718
G1 X91.467 Y81.432 E21.16682
G1 X92.349 Y81.236 E21.21099
G1 X93.382 Y81.1 E21.26193
G1 X94.104 Y81.062 E21.29728
G1 X94.885 Y81.049 E21.33547
G1 X140.141 Y81.049 E23.54815
G1 X141.054 Y81.062 E23.59279
G1 X141.993 Y81.117 E23.63878
G1 X142.997 Y81.266 E23.68841
G1 X143.876 Y81.476 E23.73259
G1 X144.873 Y81.811 E23.78402
G1 X145.734 Y82.189 E23.82999
G1 X146.561 Y82.64 E23.87605
G1 X147.436 Y83.225 E23.92751
G1 X148.168 Y83.815 E23.97347
G1 X148.873 Y84.493 E24.0213
G1 X149.537 Y85.259 E24.07086
G1 X150.068 Y85.99 E24.11504
G1 X150.591 Y86.862 E24.16475
G1 X151.031 Y87.775 E24.2143
G1 X151.351 Y88.62 E24.25848
G1 X151.636 Y89.634 E24.30998
G1 X151.807 Y90.558 E24.35592
G1 X151.903 Y91.555 E24.40489
G1 X151.917 Y92.179 E24.43541
G1 X151.913 Y92.537 E24.45291
G1 X151.861 Y93.513 E24.5007
G1 X151.736 Y94.408 E24.54488
G1 X151.519 Y95.364 E24.59281
G1 X151.349 Y95.978 E24.62396
G1 X150.929 Y97.422 E24.69749
G1 X150.294 Y99.856 E24.82048
G1 X149.725 Y102.33 E24.94459
G1 X149.234 Y104.771 E25.06633
G1 X148.806 Y107.254 E25.18952
G1 X148.451 Y109.742 E25.3124
G1 X148.17 Y112.2 E25.43336
G1 X147.905 Y115.372 E25.58898
G1 X147.793 Y116.336 E25.63643
G1 X147.55 Y117.819 E25.70991
G1 X147.395 Y118.674 E25.75239
G1 X147.206 Y119.512 E25.79439
G1 X146.955 Y120.443 E25.84154
G1 X146.519 Y121.919 E25.91679
G1 X146.219 Y122.791 E25.96187
G1 X145.871 Y123.673 E26.00823
G1 X145.306 Y125.014 E26.07938
G1 X144.926 Y125.818 E26.12286
G1 X144.359 Y126.898 E26.18249
G1 X143.98 Y127.585 E26.22086
G1 X143.62 Y128.205 E26.25591
G1 X143.23 Y128.825 E26.29172
G1 X142.57 Y129.796 E26.34912
G1 X141.709 Y130.994 E26.42125
G1 X141.063 Y131.804 E26.47191
G1 X140.073 Y132.928 E26.54514
G1 X139.437 Y133.621 E26.59113
G1 X138.796 Y134.26 E26.63538
G1 X138.28 Y134.735 E26.66967
G1 X137.507 Y135.424 E26.7203
G1 X136.91 Y135.941 E26.75891
G1 X136.255 Y136.464 E26.79989
G1 X135.733 Y136.848 E26.83158
G1 X134.767 Y137.535 E26.88953
G1 X134.151 Y137.958 E26.92607
G1 X133.339 Y138.465 E26.97287
G1 X132.354 Y139.02 E27.02815
G1 X130.962 Y139.757 E27.10516
G1 X130.095 Y140.164 E27.15199
G1 X128.743 Y140.726 E27.22357
G1 X128.038 Y141.006 E27.26066
G1 X127.118 Y141.322 E27.30822
G1 X125.601 Y141.767 E27.38552
G1 X124.66 Y142.017 E27.43312
G1 X123.927 Y142.186 E27.4699
G1 X123.26 Y142.311 E27.50308
G1 X122.18 Y142.494 E27.55664
G1 X121.45 Y142.607 E27.59275
G1 X120.569 Y142.708 E27.63611
G1 X118.898 Y142.815 E27.71797
G1 X118.007 Y142.851 E27.76157
G1 X117.031 Y142.846 E27.80929
G1 X115.614 Y142.777 E27.87866
G1 X114.582 Y142.704 E27.92924
G1 X113.705 Y142.605 E27.97239
G1 X112.819 Y142.466 E28.01624
G1 X111.372 Y142.209 E28.08809
G1 X110.452 Y142.003 E28.13419
G1 X109.536 Y141.756 E28.18057
G1 X108.058 Y141.32 E28.25591
G1 X107.185 Y141.021 E28.30103
G1 X106.312 Y140.677 E28.34691
G1 X104.966 Y140.112 E28.41828
G1 X104.16 Y139.729 E28.46191
G1 X103.099 Y139.171 E28.52052
G1 X101.889 Y138.492 E28.58836
G1 X101.147 Y138.03 E28.6311
G1 X99.952 Y137.212 E28.7019
G1 X98.971 Y136.502 E28.76111
G1 X98.172 Y135.863 E28.81113
G1 X96.877 Y134.72 E28.89558
G1 X96.35 Y134.233 E28.93066
G1 X95.727 Y133.606 E28.97388
G1 X95.123 Y132.95 E29.01748
G1 X94.521 Y132.274 E29.06173
G1 X94.034 Y131.71 E29.09817
G1 X93.506 Y131.049 E29.13953
G1 X93.117 Y130.52 E29.17163
G1 X92.533 Y129.699 E29.22089
G1 X92.017 Y128.948 E29.26544
G1 X91.513 Y128.139 E29.31204
G1 X90.814 Y126.894 E29.38185
G1 X90.218 Y125.759 E29.44453
G1 X89.814 Y124.901 E29.4909
G1 X89.333 Y123.747 E29.55203
G1 X88.977 Y122.855 E29.59898
G1 X88.662 Y121.945 E29.64606
G1 X88.287 Y120.676 E29.71076
G1 X87.956 Y119.454 E29.77266
G1 X87.755 Y118.548 E29.81803
G1 X87.519 Y117.207 E29.88461
G1 X87.368 Y116.245 E29.93222
G1 X87.276 Y115.475 E29.97013
G1 X87.021 Y112.36 E30.12294
G1 X86.741 Y109.9 E30.24399
G1 X86.382 Y107.362 E30.36932
G1 X85.961 Y104.9 E30.49144
G1 X85.468 Y102.433 E30.61444
G1 X84.913 Y100.013 E30.73583
G1 X84.015 Y96.621 E30.90739
G1 X83.68 Y95.45 E30.96694
G1 X83.464 Y94.535 E31.0129
G1 X83.322 Y93.569 E31.06064
G1 X83.267 Y92.677 E31.10434
G1 X83.26 Y92.3 E31.12277
G1 X83.282 Y91.397 E31.16693
G1 X83.394 Y90.388 E31.21657
G1 X83.597 Y89.394 E31.26617
G1 X83.855 Y88.528 E31.31035
G1 X84.244 Y87.55 E31.36181
G1 X84.686 Y86.678 E31.40961
G1 X85.183 Y85.879 E31.45562
G1 X85.746 Y85.126 E31.50159
G1 X85.904 Y84.95 E31.51315
G0 F1080 X86.448 Y84.344
G1 F3000 E24.51315
G1 F300 Z0.48
;MESH:pump_socket_v2.stl
G0 F6000 X109.003 Y102.965 Z0.48
;TYPE:WALL-INNER
G1 F300 Z0.28
G1 F3000 E31.51315
G1 F1200 X108.674 Y102.946 E31.52926
G1 X107.978 Y102.801 E31.56402
G1 X107.598 Y102.636 E31.58428
G1 X106.982 Y102.186 E31.62157
G1 X106.752 Y101.934 E31.63826
G1 X106.348 Y101.235 E31.67773
G1 X106.241 Y100.911 E31.69441
G1 X106.158 Y100.111 E31.73374
G1 X106.194 Y99.773 E31.75035
G1 X106.455 Y98.975 E31.7914
G1 X106.701 Y98.622 E31.81244
G1 X107.052 Y98.23 E31.83817
G1 X107.275 Y98.027 E31.85291
G1 X107.554 Y97.866 E31.86866
G1 X108.032 Y97.654 E31.89423
G1 X108.372 Y97.551 E31.9116
G1 X108.626 Y97.53 E31.92406
G1 X109.149 Y97.53 E31.94963
G1 X109.456 Y97.562 E31.96472
G1 X109.743 Y97.654 E31.97945
G1 X110.314 Y97.911 E32.01007
G1 X110.644 Y98.141 E32.02974
G1 X111.104 Y98.656 E32.0635
G1 X111.375 Y99.141 E32.09066
G1 F1205.7 X111.568 Y99.739 E32.12124
G1 F1229.3 X111.6 Y100.146 E32.14072
G1 F1235.3 X111.539 Y100.87 E32.17523
G1 F1211.5 X111.358 Y101.354 E32.20026
G1 F1200 X111.034 Y101.915 E32.23193
G1 X110.802 Y102.182 E32.24922
G1 X110.156 Y102.644 E32.28805
G1 X109.86 Y102.789 E32.30417
G1 X109.249 Y102.915 E32.33467
G0 F1080 X109.003 Y102.965
G1 F3000 E25.33467
G1 F300 Z0.48
G0 F6000 X106.837 Y99.157 Z0.48
G1 F300 Z0.28
G1 F3000 E32.33467
G1 F1200 X107.014 Y98.902 E32.34985
G1 X107.464 Y98.4 E32.38281
G1 X107.723 Y98.25 E32.39744
G1 X108.337 Y97.979 E32.43026
G1 X108.626 Y97.95 E32.44446
G1 X109.302 Y97.95 E32.47751
G1 X109.574 Y98.039 E32.4915
G1 X110.118 Y98.282 E32.52063
G1 X110.353 Y98.446 E32.53464
G1 X110.783 Y98.926 E32.56615
